X: 19462
T: Jackson's Fancy
R: jig
M: 6/8
K: Dmajor
DFA def|edc dAF|GBG FAF|GEF GFE|
DFA def|edc dAF|Bcd efg|1 fdc d3:|2 fdc d2e||
|:faf d2e|fga agf|gbg ege|cec ABc|
dcd ABG|F2A Bcd|Bcd efg|1 fdc d2e:|2 fdc d3||

